material/.icons/material/reply-all.svg

<svg xmlns="http://www.w3.org/2000/svg" viewBox="0 0 24 24"><path d="M13 9V5l-7 7 7 7v-4.1c5 0 8.5 1.6 11 5.1-1-5-4-10-11-11M7 8V5l-7 7 7 7v-3l-4-4 4-4z"/></svg>

<?xml version="1.0" encoding="UTF-8"?><!DOCTYPE svg PUBLIC "-//W3C//DTD SVG 1.1//EN" "http://www.w3.org/Graphics/SVG/1.1/DTD/svg11.dtd"><svg xmlns="http://www.w3.org/2000/svg" xmlns:xlink="http://www.w3.org/1999/xlink" version="1.1" id="mdi-reply-all" width="24" height="24" viewBox="0 0 24 24"><path d="M13,9V5L6,12L13,19V14.9C18,14.9 21.5,16.5 24,20C23,15 20,10 13,9M7,8V5L0,12L7,19V16L3,12L7,8Z" /></svg>
